static/icons/fee.svg

<svg width="18" height="20" viewBox="0 0 18 20" fill="none" xmlns="http://www.w3.org/2000/svg">
<path d="M2.53846 0.0776978C1.86522 0.0776978 1.21955 0.345142 0.743498 0.821195C0.267444 1.29725 0 1.94292 0 2.61616V9.53923C0 9.84525 0.121565 10.1387 0.337953 10.3551C0.554341 10.5715 0.847826 10.6931 1.15385 10.6931H4.38461C4.56748 10.6907 4.74219 10.617 4.8715 10.4877C5.00082 10.3583 5.07453 10.1836 5.07692 10.0008V2.61616C5.07692 1.94292 4.80948 1.29725 4.33342 0.821195C3.85737 0.345142 3.2117 0.0776978 2.53846 0.0776978ZM3.6923 9.30846H1.38461V2.61616C1.38468 2.37396 1.46157 2.13803 1.60422 1.94231C1.74686 1.74658 1.94792 1.60115 2.17846 1.52693C2.29295 1.48159 2.41535 1.45962 2.53846 1.46231C2.84448 1.46231 3.13796 1.58388 3.35435 1.80027C3.57074 2.01665 3.6923 2.31014 3.6923 2.61616V9.30846Z" fill="black"/>
<path d="M12.6923 0.0776978H2.53847C2.4175 0.0780648 2.29868 0.109707 2.19355 0.169551C2.08841 0.229395 2.00054 0.315407 1.93847 0.419236C1.87946 0.525064 1.84848 0.644221 1.84848 0.76539C1.84848 0.886558 1.87946 1.00571 1.93847 1.11154L2.17847 1.52693C2.29296 1.48159 2.41536 1.45962 2.53847 1.46231C2.84449 1.46231 3.13797 1.58388 3.35436 1.80027C3.57075 2.01665 3.69231 2.31014 3.69231 2.61616V18.1054C3.69422 18.3851 3.76833 18.6597 3.90749 18.9024C4.04664 19.1451 4.24612 19.3477 4.48659 19.4907C4.72706 19.6337 5.00038 19.7122 5.28008 19.7185C5.55978 19.7249 5.83638 19.6589 6.08308 19.5269L6.35077 19.37C6.71755 19.1039 7.16249 18.9675 7.61539 18.9823C8.06847 18.9661 8.51386 19.1026 8.88 19.37C9.46649 19.7538 10.1545 19.9532 10.8554 19.9423C11.5549 19.9544 12.2412 19.7514 12.8215 19.3608C13.1942 19.1107 13.6328 18.9772 14.0815 18.9772C14.5303 18.9772 14.9689 19.1107 15.3415 19.3608L15.6092 19.5177C15.8526 19.6561 16.1277 19.7288 16.4077 19.7288C16.6876 19.7288 16.9628 19.6561 17.2061 19.5177C17.4483 19.3768 17.6491 19.1747 17.7885 18.9317C17.9278 18.6886 18.0008 18.4132 18 18.1331V5.38539C17.9976 3.97845 17.4376 2.62984 16.4427 1.63498C15.4479 0.640123 14.0992 0.0801382 12.6923 0.0776978ZM11.3077 13.0008H7.61539C7.43178 13.0008 7.25568 12.9278 7.12585 12.798C6.99602 12.6682 6.92308 12.4921 6.92308 12.3085C6.92308 12.1248 6.99602 11.9488 7.12585 11.8189C7.25568 11.6891 7.43178 11.6161 7.61539 11.6161H11.3077C11.4913 11.6161 11.6674 11.6891 11.7972 11.8189C11.9271 11.9488 12 12.1248 12 12.3085C12 12.4921 11.9271 12.6682 11.7972 12.798C11.6674 12.9278 11.4913 13.0008 11.3077 13.0008ZM14.0769 9.77H7.61539C7.43178 9.77 7.25568 9.69706 7.12585 9.56722C6.99602 9.43739 6.92308 9.2613 6.92308 9.07769C6.92308 8.89408 6.99602 8.71799 7.12585 8.58816C7.25568 8.45832 7.43178 8.38538 7.61539 8.38538H14.0769C14.2605 8.38538 14.4366 8.45832 14.5665 8.58816C14.6963 8.71799 14.7692 8.89408 14.7692 9.07769C14.7692 9.2613 14.6963 9.43739 14.5665 9.56722C14.4366 9.69706 14.2605 9.77 14.0769 9.77ZM14.0769 6.53923H7.61539C7.43178 6.53923 7.25568 6.46629 7.12585 6.33646C6.99602 6.20663 6.92308 6.03053 6.92308 5.84692C6.92308 5.66331 6.99602 5.48722 7.12585 5.35739C7.25568 5.22756 7.43178 5.15462 7.61539 5.15462H14.0769C14.2605 5.15462 14.4366 5.22756 14.5665 5.35739C14.6963 5.48722 14.7692 5.66331 14.7692 5.84692C14.7692 6.03053 14.6963 6.20663 14.5665 6.33646C14.4366 6.46629 14.2605 6.53923 14.0769 6.53923Z" fill="black"/>
</svg>

<svg xmlns="http://www.w3.org/2000/svg" width="18" height="20" fill="none"><path fill="#000" d="M2.538.078A2.538 2.538 0 0 0 0 2.616V9.54a1.154 1.154 0 0 0 1.154 1.154h3.23a.702.702 0 0 0 .693-.692V2.616A2.538 2.538 0 0 0 2.538.078Zm1.154 9.23H1.385V2.616a1.145 1.145 0 0 1 .793-1.09.923.923 0 0 1 .36-.064 1.154 1.154 0 0 1 1.154 1.154v6.692Z"/><path fill="#000" d="M12.692.078H2.538a.702.702 0 0 0-.6.341.71.71 0 0 0 0 .693l.24.415a.923.923 0 0 1 .36-.065 1.154 1.154 0 0 1 1.154 1.154v15.49a1.625 1.625 0 0 0 2.391 1.42l.268-.156a2.04 2.04 0 0 1 1.264-.388c.453-.016.899.12 1.265.388a3.508 3.508 0 0 0 1.975.572c.7.012 1.386-.19 1.966-.581a2.261 2.261 0 0 1 2.52 0l.268.157a1.615 1.615 0 0 0 1.597 0A1.598 1.598 0 0 0 18 18.133V5.385A5.317 5.317 0 0 0 12.692.078ZM11.308 13H7.615a.692.692 0 0 1 0-1.385h3.693a.692.692 0 0 1 0 1.385Zm2.769-3.231H7.615a.692.692 0 1 1 0-1.385h6.462a.693.693 0 0 1 0 1.385Zm0-3.23H7.615a.692.692 0 0 1 0-1.385h6.462a.693.693 0 0 1 0 1.384Z"/></svg>
